symbols/web/1k/materialsymbolsoutlined/1k_wght500_40px.svg

<svg xmlns="http://www.w3.org/2000/svg" height="40" width="40"><path d="M20.375 25h2.208v-3.75L25.875 25h2.833l-4.375-5 4.375-5h-2.833l-3.292 3.75V15h-2.208Zm-6.333 0h2.25V15h-4.834v2.208h2.584ZM7.875 35.292q-1.292 0-2.229-.938-.938-.937-.938-2.229V7.875q0-1.292.938-2.229.937-.938 2.229-.938h24.25q1.292 0 2.229.938.938.937.938 2.229v24.25q0 1.292-.938 2.229-.937.938-2.229.938Zm0-3.167h24.25V7.875H7.875v24.25Zm0-24.25v24.25-24.25Z"/></svg>

<svg xmlns="http://www.w3.org/2000/svg" height="40" width="40"><path d="M20.375 25H22.583V21.25L25.875 25H28.708L24.333 20L28.708 15H25.875L22.583 18.75V15H20.375ZM14.042 25H16.292V15H11.458V17.208H14.042ZM7.875 35.292Q6.583 35.292 5.646 34.354Q4.708 33.417 4.708 32.125V7.875Q4.708 6.583 5.646 5.646Q6.583 4.708 7.875 4.708H32.125Q33.417 4.708 34.354 5.646Q35.292 6.583 35.292 7.875V32.125Q35.292 33.417 34.354 34.354Q33.417 35.292 32.125 35.292ZM7.875 32.125H32.125Q32.125 32.125 32.125 32.125Q32.125 32.125 32.125 32.125V7.875Q32.125 7.875 32.125 7.875Q32.125 7.875 32.125 7.875H7.875Q7.875 7.875 7.875 7.875Q7.875 7.875 7.875 7.875V32.125Q7.875 32.125 7.875 32.125Q7.875 32.125 7.875 32.125ZM7.875 7.875Q7.875 7.875 7.875 7.875Q7.875 7.875 7.875 7.875V32.125Q7.875 32.125 7.875 32.125Q7.875 32.125 7.875 32.125Q7.875 32.125 7.875 32.125Q7.875 32.125 7.875 32.125V7.875Q7.875 7.875 7.875 7.875Q7.875 7.875 7.875 7.875Z"/></svg>
